X:94
T:The Glory of the West
M:C|
L:1/8
Q:160
K:Gm
BABA G2G2|AGAG F2F2|B2 AB c2 Bc|d2 AB G2G2||
dcdc B2fe|dedc B2B2|f2fg c2c2|f2fg c2c2|g2ga f2fg|d2cd B2B2|
f2fg d2cB|cBAG F2F2|B2 AB c2 Bc|d2 AB G2G2||

